X:390
T: Marching to Drogheda
S: "Roche Collection of Traditional Irish Music" [II/61/347]
L: 1/8
M: 2/4
R: polka (% or march or hornpipe)
K: G
G/A/ | B2 BA | B>d GA | Bd dB | A2 GA |
B2 BA | B>d ef | ge dB | A2 z :|
z | g>f ga | gf ed | g>f ga | gf e2 |
g>f ga | gf ed | e>f ge | dB A :|
